X:1
T: Captain Charles Stewart's Jigg
C:
R:Jig
Q:180
K:G
M:6/8
L:1/16
D2|G6 G4c2|Bcd2e2 g4e2|d2B2G2 A2B2A2|G2E2E2 E4DE|G6 G4c2|Bcd2e2 g4e2|d2B2G2 A2B2c2|B2G2G2 G4D2|
G6 G4c2|Bcd2e2 g4e2|d2B2G2 A2B2A2|G2E2E2 E4DE|G6 G4c2|Bcd2e2 g4e2|d2B2G2 A2B2c2|B2G2G2 G4d2|
d2^c2d2 e2=c2e2|e2f2g2 g4e2|d2B2G2 A2B2c2|B2A2G2 A4e2|d2^c2d2 e2=c2e2|e2f2g2 g4e2|d2B2G2 A2B2c2|B2G2G2 G4d2|
d2^c2d2 e2=c2e2|e2f2g2 g4e2|d2B2G2 A2B2c2|B2A2G2 E4D2|G6 G4c2|Bcd2e2 g4e2|d2B2G2 A2B2c2|B2G2G2 G4||
